icons/desktop/16/svg/split-view-left-16.svg

<svg width="16" height="16" viewBox="0 0 16 16" fill="none" xmlns="http://www.w3.org/2000/svg">
<path d="M8 1C8.41421 1 8.75 1.33579 8.75 1.75V14.25C8.75 14.6642 8.41421 15 8 15C7.58579 15 7.25 14.6642 7.25 14.25V13.9932C5.65305 13.9705 4.04397 13.877 2.45508 13.7119C1.05608 13.5659 0 12.3896 0 10.9746V5.02539C0 3.61055 1.06577 2.43137 2.47754 2.28516C4.0568 2.12213 5.65161 2.03682 7.25 2.01855V1.75C7.25 1.33579 7.58579 1 8 1Z" fill="black"/>
<path d="M10.25 2.05957C11.352 2.10557 12.4509 2.17409 13.5449 2.28809C14.9439 2.43409 16 3.61039 16 5.02539V10.9746C16 12.3895 14.9342 13.5686 13.5225 13.7148C12.4395 13.8268 11.345 13.8964 10.25 13.9424V12.4424C11.293 12.3974 12.3342 12.3297 13.3682 12.2227C14.0141 12.1556 14.5 11.6195 14.5 10.9746V5.02539C14.5 4.38139 14.0226 3.84627 13.3896 3.78027C12.3488 3.67229 11.2989 3.60459 10.25 3.55859V2.05957Z" fill="black"/>
</svg>

<!-- This Source Code Form is subject to the terms of the Mozilla Public
   - License, v. 2.0. If a copy of the MPL was not distributed with this
   - file, You can obtain one at http://mozilla.org/MPL/2.0/. -->
<svg xmlns="http://www.w3.org/2000/svg" width="16" height="16" fill="context-fill" fill-opacity="context-fill-opacity" viewBox="0 0 16 16">
    <path d="M8 1a.75.75 0 0 1 .75.75v12.5a.75.75 0 0 1-1.5 0v-.257a54 54 0 0 1-4.795-.281A2.74 2.74 0 0 1 0 10.975v-5.95a2.753 2.753 0 0 1 2.478-2.74A52 52 0 0 1 7.25 2.02V1.75A.75.75 0 0 1 8 1M10.25 2.06c1.102.046 2.2.114 3.295.228A2.74 2.74 0 0 1 16 5.025v5.95a2.753 2.753 0 0 1-2.477 2.74 54 54 0 0 1-3.273.227v-1.5a52 52 0 0 0 3.118-.22 1.254 1.254 0 0 0 1.132-1.247v-5.95c0-.644-.477-1.179-1.11-1.245a53 53 0 0 0-3.14-.221z" />
</svg>
